public/assets/images/icons/burgermenu.svg

<svg width="35" height="34" viewBox="0 0 35 34" fill="none" xmlns="http://www.w3.org/2000/svg">
<path d="M1.64717 2.40047H22.4726C22.685 2.40047 22.8887 2.28396 23.0389 2.07656C23.1892 1.86917 23.2735 1.58788 23.2735 1.29458C23.2735 1.00128 23.1892 0.719992 23.0389 0.512598C22.8887 0.305203 22.685 0.18869 22.4726 0.18869H1.64717C1.43474 0.18869 1.231 0.305203 1.08079 0.512598C0.93058 0.719992 0.846191 1.00128 0.846191 1.29458C0.846191 1.58788 0.93058 1.86917 1.08079 2.07656C1.231 2.28396 1.43474 2.40047 1.64717 2.40047ZM33.6862 15.6711H1.64717C1.43474 15.6711 1.231 15.7877 1.08079 15.995C0.93058 16.2024 0.846191 16.4837 0.846191 16.777C0.846191 17.0703 0.93058 17.3516 1.08079 17.559C1.231 17.7664 1.43474 17.8829 1.64717 17.8829H33.6862C33.8987 17.8829 34.1024 17.7664 34.2526 17.559C34.4028 17.3516 34.4872 17.0703 34.4872 16.777C34.4872 16.4837 34.4028 16.2024 34.2526 15.995C34.1024 15.7877 33.8987 15.6711 33.6862 15.6711ZM33.6862 31.1536H12.8608C12.6484 31.1536 12.4447 31.2701 12.2945 31.4775C12.1443 31.6849 12.0599 31.9662 12.0599 32.2595C12.0599 32.5528 12.1443 32.8341 12.2945 33.0415C12.4447 33.2489 12.6484 33.3654 12.8608 33.3654H33.6862C33.8987 33.3654 34.1024 33.2489 34.2526 33.0415C34.4028 32.8341 34.4872 32.5528 34.4872 32.2595C34.4872 31.9662 34.4028 31.6849 34.2526 31.4775C34.1024 31.2701 33.8987 31.1536 33.6862 31.1536Z" fill="white"/>
</svg>

<svg width="35" height="34" fill="none" xmlns="http://www.w3.org/2000/svg"><path d="M1.647 2.4h20.826c.212 0 .416-.116.566-.323.15-.208.234-.49.234-.782 0-.294-.084-.575-.234-.782-.15-.208-.354-.324-.566-.324H1.647c-.212 0-.416.116-.566.324a1.338 1.338 0 0 0-.235.782c0 .293.085.574.235.782.15.207.354.323.566.323Zm32.04 13.271H1.646c-.212 0-.416.117-.566.324a1.35 1.35 0 0 0-.235.782c0 .293.085.575.235.782.15.207.354.324.566.324h32.04c.212 0 .415-.117.566-.324a1.35 1.35 0 0 0 .234-.782 1.35 1.35 0 0 0-.234-.782c-.15-.207-.354-.324-.567-.324Zm0 15.483H12.86c-.213 0-.416.116-.567.323-.15.208-.234.49-.234.783 0 .293.084.574.234.782.15.207.354.323.567.323h20.825c.213 0 .416-.116.567-.324.15-.207.234-.488.234-.781 0-.294-.084-.575-.234-.782-.15-.208-.354-.324-.567-.324Z" fill="#fff"/></svg>
